images/01/graph-stats-ascend.svg

<svg fill="none" height="24" viewBox="0 0 24 24" width="24" xmlns="http://www.w3.org/2000/svg"><g stroke="#0057fc" stroke-linecap="round" stroke-linejoin="round" stroke-width="1.5"><path d="m23.25 12.75v-6.75h-6.75"/><path d="m23.25 6-7.939 7.939c-.2813.2815-.663.4397-1.061.4397s-.7797-.1582-1.061-.4397l-3.128-3.128c-.28133-.2815-.66301-.4397-1.061-.4397s-.77967.1582-1.061.4397l-7.189 7.189"/></g></svg>

<svg xmlns="http://www.w3.org/2000/svg" width="24" height="24" viewBox="0 0 24 24" fill="none"><path d="M23.25 12.75V6H16.5" stroke="#0057FC" stroke-width="1.5" stroke-linecap="round" stroke-linejoin="round"/><path d="M23.25 6L15.311 13.939C15.0297 14.2205 14.648 14.3787 14.25 14.3787C13.852 14.3787 13.4703 14.2205 13.189 13.939L10.061 10.811C9.77967 10.5295 9.39799 10.3713 9 10.3713C8.60201 10.3713 8.22033 10.5295 7.939 10.811L0.75 18" stroke="#0057FC" stroke-width="1.5" stroke-linecap="round" stroke-linejoin="round"/></svg>
